storage/app/icons/phosphoricons/light/square-split-vertical-light.svg

<svg xmlns="http://www.w3.org/2000/svg" fill="currentColor" viewBox="0 0 256 256"><path d="M200 42H56a14 14 0 0 0-14 14v144a14 14 0 0 0 14 14h144a14 14 0 0 0 14-14V56a14 14 0 0 0-14-14M56 54h144a2 2 0 0 1 2 2v66H54V56a2 2 0 0 1 2-2m144 148H56a2 2 0 0 1-2-2v-66h148v66a2 2 0 0 1-2 2"/></svg>

<svg xmlns="http://www.w3.org/2000/svg" viewBox="0 0 256 256" fill="currentColor"><path d="M200,42H56A14,14,0,0,0,42,56V200a14,14,0,0,0,14,14H200a14,14,0,0,0,14-14V56A14,14,0,0,0,200,42ZM56,54H200a2,2,0,0,1,2,2v66H54V56A2,2,0,0,1,56,54ZM200,202H56a2,2,0,0,1-2-2V134H202v66A2,2,0,0,1,200,202Z"/></svg>
